X: 12
T: Pere Leon, Reel De
R: Reel
M: 4/4
Q: 190
L: 1/8
S: from Portland Collection
K: G
d||:"G"g2gf gedc|BGAc BGG2|BGBd "C"cBAG|"D"FGAB A2 (3def|
  |"G"g2gf gedc|BGAc BGG2|BGBd "C"cBAG|1"D"FGAF "G"G2 (3def:||2"D"FGAF "G"G3 A|
||:"G"B3d "C"cBAG|"G"BGBd "C"cBAG|"G"BGBd "C"cBAG|"D"FGAB A4|
  |"G"B3d "C"cBAG|"G"BGBd "C"cBAG|"G"BGBd "C"cBAG|1"D"FGAF "G"G2 A2:||2"D"FGAF "G"G2 (3def|]

%%newpage
%%textfont * 14
%%begintext justify
%%32 Bar Reels
%%endtext
